X:57
T:Bottom of the Punch Bowl, The
R:Country Dance
C:James Oswald
B:The Athole Collection
M:C|
L:1/8
K:D
FE|D2D2d3e|d2D2 FGAF|E2E2 efgf|e2E2 FGAF|D2D2 d3e|
fedB d3A|B3F A3E|F2D2D2:|
|:de|fedB ABde|fedB d3e|A3B ABde|f2e2e2de|fedB ABde|
fedB d3A|BdBF ABAE|F2D2D2:|

